src/topics/icons/maps-me.svg

<svg height="256" preserveAspectRatio="xMidYMid" viewBox="0 0 256 256" width="256" xmlns="http://www.w3.org/2000/svg"><path d="m256 128c0 70.692-57.308 128-128 128s-128-57.308-128-128 57.308-128 128-128 128 57.308 128 128" fill="#4cd960"/><g fill="#fff"><path d="m81.354 154.734c-.501-.51-1.322-.514-1.827-.009l-21.211 21.201 1.372 6.51c2.152 11.202 13.079 18.949 24.282 16.797l32.5-6.245c.881-.169 1.219-1.251.59-1.891z"/><path d="m75.013 149.877c.532-.531.537-1.391.01-1.927l-24.13-24.572c-.949-.966-2.574-.113-2.318 1.217l7.839 40.801c.207 1.076 1.532 1.484 2.308.711z"/><path d="m113.146 109.557c.638.648 1.681.653 2.325.011l37.974-37.832c.896-.893.095-2.408-1.148-2.169l-63.648 12.229c-1.006.193-1.392 1.43-.673 2.161z"/><path d="m186.495 116.846 24.418 24.569c.8.805 2.159.09 1.949-1.025l-7.798-41.45c-.171-.907-1.286-1.255-1.942-.606l-16.617 16.413c-.584.576-.588 1.517-.01 2.099"/><path d="m153.565 83.221 26.125 26.724c.624.638 1.649.647 2.284.018l21.137-20.921-1.333-7.933c-2.153-11.202-12.713-18.607-23.915-16.454l-9.493 1.715-14.784 14.578c-.631.623-.641 1.639-.021 2.273"/><path d="m81.647 142.733 26.628-26.018c.702-.686.713-1.811.025-2.51l-29.692-30.199-16.169 2.826c-10.572 2.031-17.757 11.318-16.724 21.835l33.429 34.04c.685.697 1.804.708 2.503.026"/><path d="m148.35 143.693 27.125-26.896c.456-.452.46-1.188.009-1.645l-27.031-27.428c-.454-.46-1.196-.463-1.653-.005l-26.976 26.976c-.452.452-.456 1.184-.007 1.64l26.883 27.347c.452.461 1.192.465 1.65.011"/><path d="m148.326 154.867c-.506-.518-1.337-.523-1.85-.012l-27.037 26.967c-.508.508-.509 1.331-.002 1.84l7.156 7.179 45.44-8.747c1.034-.199 1.432-1.468.696-2.222z"/><path d="m215.704 156-33.794-34.296c-.583-.592-1.536-.594-2.122-.005l-26.467 26.604c-.577.58-.58 1.517-.006 2.101l29.074 29.577 17.004-3.268c10.053-1.931 16.536-10.792 16.311-20.713"/><path d="m113.926 141.556c-4.173 0-7.556 3.382-7.556 7.555s3.383 7.556 7.556 7.556 7.555-3.383 7.555-7.556-3.382-7.555-7.555-7.555"/><path d="m92.239 77.186 6.282-1.372c.702-.153 1.22-.75 1.273-1.466l-.09-2.866c.17-2.265 1.318-4.591 2.789-6.321 1.728-2.033 3.741-3.625 6.293-4.14l15.186-3.111c3.425-.691 8.324.905 10.991 3.794 1.725 1.917 2.676 3.927 3.131 5.107.231.598.85.95 1.481.835l6.158-1.125c.736-.135 1.221-.852 1.057-1.583-.364-1.622-1.478-4.672-4.864-9.012-3.63-4.889-12.745-7.978-19.354-6.644l-14.955 3.018c-7.441 1.502-14.061 6.959-15.839 14.589-.997 3.043-1.028 7.09-.961 9.192.024.732.706 1.262 1.422 1.105"/></g></svg>

<?xml version="1.0" encoding="UTF-8" standalone="no"?>
<svg width="256px" height="256px" viewBox="0 0 256 256" version="1.1" xmlns="http://www.w3.org/2000/svg" xmlns:xlink="http://www.w3.org/1999/xlink" preserveAspectRatio="xMidYMid">
	<g>
		<path d="M256,128 C256,198.692 198.692,256 128,256 C57.308,256 0,198.692 0,128 C0,57.308 57.308,0 128,0 C198.692,0 256,57.308 256,128" fill="#4CD960"></path>
		<path d="M81.354,154.734 C80.853,154.224 80.032,154.22 79.527,154.725 L58.316,175.926 L59.688,182.436 C61.84,193.638 72.767,201.385 83.97,199.233 L116.47,192.988 C117.351,192.819 117.689,191.737 117.06,191.097 L81.354,154.734" fill="#FFFFFF"></path>
		<path d="M75.013,149.877 C75.545,149.346 75.55,148.486 75.023,147.95 L50.893,123.378 C49.944,122.412 48.319,123.265 48.575,124.595 L56.414,165.396 C56.621,166.472 57.946,166.88 58.722,166.107 L75.013,149.877" fill="#FFFFFF"></path>
		<path d="M113.146,109.557 C113.784,110.205 114.827,110.21 115.471,109.568 L153.445,71.736 C154.341,70.843 153.54,69.328 152.297,69.567 L88.649,81.796 C87.643,81.989 87.257,83.226 87.976,83.957 L113.146,109.557" fill="#FFFFFF"></path>
		<path d="M186.495,116.846 L210.913,141.415 C211.713,142.22 213.072,141.505 212.862,140.39 L205.064,98.94 C204.893,98.033 203.778,97.685 203.122,98.334 L186.505,114.747 C185.921,115.323 185.917,116.264 186.495,116.846" fill="#FFFFFF"></path>
		<path d="M153.565,83.221 L179.69,109.945 C180.314,110.583 181.339,110.592 181.974,109.963 L203.111,89.042 L201.778,81.109 C199.625,69.907 189.065,62.502 177.863,64.655 L168.37,66.37 L153.586,80.948 C152.955,81.571 152.945,82.587 153.565,83.221" fill="#FFFFFF"></path>
		<path d="M81.647,142.733 L108.275,116.715 C108.977,116.029 108.988,114.904 108.3,114.205 L78.608,84.006 L62.439,86.832 C51.867,88.863 44.682,98.15 45.715,108.667 L79.144,142.707 C79.829,143.404 80.948,143.415 81.647,142.733" fill="#FFFFFF"></path>
		<path d="M148.35,143.693 L175.475,116.797 C175.931,116.345 175.935,115.609 175.484,115.152 L148.453,87.724 C147.999,87.264 147.257,87.261 146.8,87.719 L119.824,114.695 C119.372,115.147 119.368,115.879 119.817,116.335 L146.7,143.682 C147.152,144.143 147.892,144.147 148.35,143.693" fill="#FFFFFF"></path>
		<path d="M148.326,154.867 C147.82,154.349 146.989,154.344 146.476,154.855 L119.439,181.822 C118.931,182.33 118.93,183.153 119.437,183.662 L126.593,190.841 L172.033,182.094 C173.067,181.895 173.465,180.626 172.729,179.872 L148.326,154.867" fill="#FFFFFF"></path>
		<path d="M215.704,156 L181.91,121.704 C181.327,121.112 180.374,121.11 179.788,121.699 L153.321,148.303 C152.744,148.883 152.741,149.82 153.315,150.404 L182.389,179.981 L199.393,176.713 C209.446,174.782 215.929,165.921 215.704,156" fill="#FFFFFF"></path>
		<path d="M113.926,141.556 C109.753,141.556 106.37,144.938 106.37,149.111 C106.37,153.284 109.753,156.667 113.926,156.667 C118.099,156.667 121.481,153.284 121.481,149.111 C121.481,144.938 118.099,141.556 113.926,141.556" fill="#FFFFFF"></path>
		<path d="M92.239,77.186 L98.521,75.814 C99.223,75.661 99.741,75.064 99.794,74.348 L99.704,71.482 C99.874,69.217 101.022,66.891 102.493,65.161 C104.221,63.128 106.234,61.536 108.786,61.021 L123.972,57.91 C127.397,57.219 132.296,58.815 134.963,61.704 C136.688,63.621 137.639,65.631 138.094,66.811 C138.325,67.409 138.944,67.761 139.575,67.646 L145.733,66.521 C146.469,66.386 146.954,65.669 146.79,64.938 C146.426,63.316 145.312,60.266 141.926,55.926 C138.296,51.037 129.181,47.948 122.572,49.282 L107.617,52.3 C100.176,53.802 93.556,59.259 91.778,66.889 C90.781,69.932 90.75,73.979 90.817,76.081 C90.841,76.813 91.523,77.343 92.239,77.186" fill="#FFFFFF"></path>
	</g>
</svg>
